X:7
T:Be Flat
M:C|
C:© Paul Gitlitz  2007 with alterations by D.Light '09
R:Hornpipe
B:Anna's Smile
K:Bb
"Bb"B2 dB "(F/A)"F2B2|"(Gm7)"(3BBB dB "(F)"F2B2|"F"ABcd "(F/C)"ecAc|"Bb"BABc "F"defd|!
"Bb"B2 dB "(F/A)"F2B2|"(Gm7)"(3BBB dB "(F)"F2B2|"F"ABcd "(F/C)"ecAc|"Bb"B2d2 B4:|!
|:"F"AFAB "(F/C)"cBAc|"Bb"BFBc "Gm/D"dcBd|"C7"cGc(d"C7/Bb" =e)dc(e|"F/A"f)=efg "F7"a2(3fga|!
"Bb"b2ag "F/A"fedc|"Gm7"B2dB "F"F2B2|"F"ABcd "F/C"ecAc|"Bb"B2 d2B4:|]
